app/assets/images/icons/active/tour--pin.svg

<svg width="22" height="32" viewBox="0 0 22 32" xmlns="http://www.w3.org/2000/svg" xmlns:sketch="http://www.bohemiancoding.com/sketch/ns"><title>tour--pin</title><g sketch:type="MSLayerGroup" fill="none"><path d="M15.504 29.984c0 1.105-2.016 2-4.5 2-2.486 0-4.5-.895-4.5-2 0-1.104 2.014-2 4.5-2 2.484 0 4.5.896 4.5 2" fill-opacity=".2" fill="#1D508D" sketch:type="MSShapeGroup"/><path d="M11.004.016c6.075 0 11 4.362 11 10.919 0 6.408-5.55 9.16-8.506 13.257-2.42 3.346-2.494 5.824-2.494 5.824s-.018-2.491-2.495-5.824c-3.039-4.097-8.505-6.661-8.505-13.257 0-6.559 4.925-10.919 11-10.919" fill="#16C98D" sketch:type="MSShapeGroup"/><path d="M11.004 17.2c3.646 0 6.6-2.953 6.6-6.597 0-3.644-2.954-6.602-6.6-6.602-3.646 0-6.601 2.958-6.601 6.602s2.955 6.597 6.601 6.597zm0-11.036c2.453 0 4.437 1.987 4.437 4.439 0 2.45-1.984 4.435-4.437 4.435-2.451 0-4.438-1.985-4.438-4.435 0-2.452 1.987-4.439 4.438-4.439zm.866 5.307l1.931-3.669-3.666 1.929-2.059 3.797 3.794-2.057zm-1.358-1.177l.797.8-1.745.947.948-1.747zm0 0" fill="#fff" sketch:type="MSShapeGroup"/></g></svg>

<?xml version="1.0" encoding="UTF-8" standalone="no"?>
<svg width="22px" height="32px" viewBox="0 0 22 32" version="1.1" xmlns="http://www.w3.org/2000/svg" xmlns:xlink="http://www.w3.org/1999/xlink" xmlns:sketch="http://www.bohemiancoding.com/sketch/ns">
    <title>tour--pin</title>
    <description>Created with Sketch (http://www.bohemiancoding.com/sketch)</description>
    <defs></defs>
    <g id="Points-of-interest" stroke="none" stroke-width="1" fill="none" fill-rule="evenodd" sketch:type="MSPage">
        <g id="tour--pin" sketch:type="MSLayerGroup">
            <path d="M15.504,29.984 C15.504,31.089 13.488,31.984 11.004,31.984 C8.518,31.984 6.504,31.089 6.504,29.984 C6.504,28.88 8.518,27.984 11.004,27.984 C13.488,27.984 15.504,28.88 15.504,29.984" id="Fill-1" fill-opacity="0.2" fill="#1D508D" sketch:type="MSShapeGroup"></path>
            <path d="M11.004,0.016 C17.079,0.016 22.004,4.378 22.004,10.935 C22.004,17.343 16.454,20.095 13.498,24.192 C11.078,27.538 11.004,30.016 11.004,30.016 C11.004,30.016 10.986,27.525 8.509,24.192 C5.47,20.095 0.004,17.531 0.004,10.935 C0.004,4.376 4.929,0.016 11.004,0.016" id="Fill-2" fill="#16C98D" sketch:type="MSShapeGroup"></path>
            <path d="M11.004,17.2 C14.65,17.2 17.604,14.247 17.604,10.603 C17.604,6.959 14.65,4.001 11.004,4.001 C7.358,4.001 4.403,6.959 4.403,10.603 C4.403,14.247 7.358,17.2 11.004,17.2 C11.004,17.2 7.358,17.2 11.004,17.2 L11.004,17.2 L11.004,17.2 Z M11.004,6.164 C13.457,6.164 15.441,8.151 15.441,10.603 C15.441,13.053 13.457,15.038 11.004,15.038 C8.553,15.038 6.566,13.053 6.566,10.603 C6.566,8.151 8.553,6.164 11.004,6.164 C11.004,6.164 8.553,6.164 11.004,6.164 L11.004,6.164 L11.004,6.164 Z M11.87,11.471 L13.801,7.802 L10.135,9.731 L8.076,13.528 L11.87,11.471 L11.87,11.471 L11.87,11.471 L11.87,11.471 Z M10.512,10.294 L11.309,11.094 L9.564,12.041 L10.512,10.294 L10.512,10.294 Z M10.512,10.294" id="Fill-3" fill="#FFFFFF" sketch:type="MSShapeGroup"></path>
        </g>
    </g>
</svg>
